X: 13735
T: Forest Rogers'
R: polka
M: 2/4
K: Dmajor
DF/A/ dA/d/|cB B/^A/B|Ac/e/ a^g/a/|ba a/^g/a|
D (3F/G/A/ d/A/F/d/|cB B/^A/B/^G/|Ac/e/ a/e/c/e/|d2:|
|:Af f/e/d/c/|Bg g/f/e/d/|c/A/c/e/ a^g/a/|b/a/^g/a/ f>d|
Af fd/c/|Bg g/f/e|cA/c/ ac|ed:|

